X:2221
L:1/8
M:4/4
K:C
 BEA |[M:9/8][K:D]SOSOO .!fermata!PMTuCO{MA} d3 dAG FED |{A} d2 d dAF G2 E | ABc dAG FGA | 
 =cBc E2 F G2 E :| d2 g fdf ece | d2 g fdf g2 e | d2 g fdf ece | =cBc E2 F G2 E | d2 g fdf ece | 
 d2 g fdf g2 e | afd gec d2 B | =cBc E2 F G2 E |]

